X: 1630
T: Joe Yates Whisky Reel
B: australian traditional tunes wiki
M:4/4
L:1/8
R: Reel
Q: 1/4=100
K:A
V:1 
(3EFG|:A2Ace2ec|e2ece2ec|d2dBc2A2|B2 (3EFG AG FE|
A2Ac ef ec|e2ece2ec|d2dBc2A2|1B2 (3EFG G2(3EFG:|2B2(3EFG G2e2||
|:a4e2ef|a2g2f2e2|df df ce ce|Bc Bc dc Bd|
a4e2ef|a2g2f2e2|df ed ce BG|1A2A2A2ce:|2A2A2A2z||
% abcbook-tune_id 6342d53ac0a122553e325440


% abcbook-boost 0
% abcbook-tablature 
% abcbook-transpose 
% abcbook-lastupdated 1665324375001
% abcbook-soundfonts 
% abcbook-repeats 1
% NFF Book 2009

